; generated by Slic3r 1.3.1-dev on 2020-05-22 at 12:39:53

; external perimeters extrusion width = 0.55mm (5.57mm^3/s)
; perimeters extrusion width = 0.58mm (11.78mm^3/s)
; infill extrusion width = 0.58mm (15.71mm^3/s)
; solid infill extrusion width = 0.58mm (3.93mm^3/s)
; top infill extrusion width = 0.58mm (2.95mm^3/s)

M107
M104 S205 ; set temperature
G28 ; home all axes
G1 Z5 F5000 ; lift nozzle

; Filament gcode

M109 S205 ; set temperature and wait for it to be reached
G21 ; set units to millimeters
G90 ; use absolute coordinates
M82 ; use absolute distances for extrusion
G92 E0
G92 E0
G1 Z0.500 F7800.000
G1 E-2.00000 F2400.00000
G92 E0
G1 X70.525 Y88.161 F7800.000
G1 E2.00000 F2400.00000
G1 F1800
G1 X71.023 Y87.807 E2.03860
G1 X71.562 Y87.478 E2.07849
G1 X72.198 Y87.156 E2.12352
G1 X72.762 Y86.923 E2.16200
G1 X73.338 Y86.731 E2.20036
G1 X73.883 Y86.590 E2.23593
G1 X74.560 Y86.465 E2.27941
G1 X75.277 Y86.391 E2.32489
G1 X98.729 Y84.940 E3.80865
G1 X99.556 Y84.906 E3.86087
G1 X100.417 Y84.903 E3.91528
G1 X101.250 Y84.933 E3.96790
G1 X102.037 Y84.990 E4.01771
G1 X102.882 Y85.083 E4.07137
G1 X103.720 Y85.209 E4.12492
G1 X104.475 Y85.351 E4.17344
G1 X105.313 Y85.540 E4.22768
G1 X106.070 Y85.741 E4.27710
G1 X106.842 Y85.976 E4.32805
G1 X107.657 Y86.258 E4.38256
G1 X108.497 Y86.587 E4.43952
G1 X109.195 Y86.892 E4.48761
G1 X109.962 Y87.261 E4.54135
G1 X110.690 Y87.645 E4.59333
G1 X111.405 Y88.059 E4.64547
G1 X112.033 Y88.451 E4.69223
G1 X112.674 Y88.884 E4.74105
G1 X113.389 Y89.406 E4.79701
G1 X114.036 Y89.919 E4.84913
G1 X114.656 Y90.450 E4.90066
G1 X115.225 Y90.973 E4.94949
G1 X115.811 Y91.553 E5.00155
G1 X116.339 Y92.116 E5.05026
G1 X116.934 Y92.799 E5.10749
G1 X117.463 Y93.457 E5.16080
G1 X117.956 Y94.122 E5.21302
G1 X118.410 Y94.783 E5.26371
G1 X118.830 Y95.446 E5.31324
G1 X119.162 Y96.012 E5.35469
G1 X119.406 Y96.490 E5.38860
G1 X119.659 Y97.084 E5.42935
G1 X119.794 Y97.468 E5.45507
G1 X119.961 Y98.054 E5.49351
G1 X120.089 Y98.685 E5.53420
G1 X120.177 Y99.434 E5.58181
G1 X120.196 Y99.963 E5.61523
G1 X120.170 Y100.662 E5.65943
G1 X120.100 Y101.248 E5.69668
G1 X119.991 Y101.820 E5.73342
G1 X119.880 Y102.251 E5.76157
G1 X119.743 Y102.683 E5.79013
G1 X119.573 Y103.132 E5.82049
G1 X119.195 Y103.927 E5.87608
G1 X118.862 Y104.500 E5.91789
G1 X118.444 Y105.165 E5.96749
G1 X117.715 Y106.210 E6.04793
G1 X116.854 Y107.296 E6.13548
G1 X116.005 Y108.244 E6.21582
G1 X115.140 Y109.107 E6.29299
G1 X114.161 Y109.977 E6.37570
G1 X113.227 Y110.716 E6.45091
G1 X112.243 Y111.411 E6.52700
G1 X111.178 Y112.077 E6.60629
G1 X110.001 Y112.720 E6.69099
G1 X108.824 Y113.274 E6.77312
G1 X107.554 Y113.780 E6.85942
G1 X106.368 Y114.172 E6.93833
G1 X105.150 Y114.500 E7.01799
G1 X103.739 Y114.788 E7.10888
G1 X102.977 Y114.904 E7.15760
G1 X102.160 Y114.999 E7.20953
G1 X100.686 Y115.091 E7.30275
G1 X99.221 Y115.084 E7.39527
G1 X75.276 Y113.609 E8.91018
G1 X74.389 Y113.509 E8.96650
G1 X73.885 Y113.411 E8.99896
G1 X73.419 Y113.293 E9.02929
G1 X72.803 Y113.092 E9.07019
G1 X72.200 Y112.845 E9.11135
G1 X71.650 Y112.570 E9.15020
G1 X71.023 Y112.193 E9.19640
G1 X70.552 Y111.859 E9.23289
G1 X70.021 Y111.419 E9.27643
G1 X69.606 Y111.020 E9.31273
G1 X69.149 Y110.509 E9.35608
G1 X68.827 Y110.094 E9.38922
G1 X68.463 Y109.552 E9.43047
G1 X68.138 Y108.977 E9.47212
G1 X67.876 Y108.421 E9.51098
G1 X67.676 Y107.909 E9.54569
G1 X67.540 Y107.497 E9.57310
G1 X67.397 Y106.960 E9.60819
G1 X67.278 Y106.356 E9.64703
G1 X67.209 Y105.826 E9.68079
G1 X67.163 Y104.927 E9.73765
G1 X67.163 Y95.073 E10.35984
G1 X67.197 Y94.303 E10.40853
G1 X67.282 Y93.618 E10.45210
G1 X67.391 Y93.068 E10.48750
G1 X67.505 Y92.624 E10.51649
G1 X67.718 Y91.975 E10.55960
G1 X68.081 Y91.134 E10.61748
G1 X68.445 Y90.477 E10.66487
G1 X68.803 Y89.938 E10.70577
G1 X69.230 Y89.394 E10.74942
G1 X69.695 Y88.890 E10.79272
G1 X70.110 Y88.502 E10.82860
G1 X70.467 Y88.209 E10.85774
G1 E8.85774 F2400.00000
G92 E0
G1 X98.598 Y105.856 F7800.000
G1 E2.00000 F2400.00000
G1 F1800
G1 X98.082 Y105.825 E2.03260
G1 X97.993 Y105.434 E2.05792
G1 X98.244 Y105.293 E2.07608
G1 X98.639 Y105.332 E2.10114
G1 X98.604 Y105.782 E2.12963
G1 E0.12963 F2400.00000
G92 E0
G1 X95.170 Y105.261 F7800.000
G1 E2.00000 F2400.00000
G1 F1800
G1 X95.033 Y105.636 E2.02520
G1 X93.904 Y105.566 E2.09659
G1 X93.881 Y105.087 E2.12686
G1 X94.410 Y105.002 E2.16068
G1 X94.695 Y104.906 E2.17968
G1 X95.110 Y105.216 E2.21242
G1 E0.21242 F2400.00000
G92 E0
G1 X85.229 Y104.639 F7800.000
G1 E2.00000 F2400.00000
G1 F1800
G1 X85.095 Y105.021 E2.02555
G1 X84.190 Y104.965 E2.08284
G1 X84.767 Y104.313 E2.13786
G1 X85.168 Y104.596 E2.16889
G1 E0.16889 F2400.00000
G92 E0
G1 X100.046 Y106.015 F7800.000
G1 E2.00000 F2400.00000
G1 F1800
G1 X100.822 Y105.379 E2.06332
G1 X101.536 Y106.730 E2.15987
G1 X100.708 Y106.798 E2.21232
G1 X100.046 Y106.821 E2.25415
G1 X99.109 Y106.784 E2.31337
G1 X75.859 Y105.344 E3.78436
G1 X75.597 Y105.301 E3.80112
G1 X75.495 Y105.162 E3.81202
G1 X75.471 Y105.089 E3.81684
G1 X75.449 Y104.884 E3.82988
G1 X75.449 Y103.827 E3.89662
G1 X75.925 Y104.100 E3.93122
G1 X76.298 Y104.247 E3.95655
G1 X76.692 Y104.356 E3.98237
G1 X77.079 Y104.422 E4.00716
G1 X77.637 Y104.451 E4.04247
G1 X78.175 Y104.416 E4.07649
G1 X78.677 Y104.318 E4.10882
G1 X79.146 Y104.151 E4.14025
G1 X79.482 Y103.975 E4.16422
G1 X79.879 Y103.691 E4.19500
G1 X80.253 Y103.303 E4.22903
G1 X80.798 Y102.410 E4.29511
G1 X80.983 Y103.210 E4.34694
G1 X81.278 Y103.711 E4.38369
G1 X81.885 Y104.154 E4.43113
G1 X82.642 Y104.323 E4.48012
G1 X83.360 Y104.227 E4.52588
G1 X83.922 Y103.921 E4.56627
G1 X84.330 Y103.459 E4.60520
G1 X84.761 Y102.466 E4.67353
G1 X85.127 Y103.304 E4.73130
G1 X85.504 Y103.740 E4.76770
G1 X85.928 Y104.040 E4.80047
G1 X86.372 Y104.238 E4.83120
G1 X86.837 Y104.369 E4.86171
G1 X87.346 Y104.439 E4.89412
G1 X87.740 Y104.451 E4.91903
G1 X88.279 Y104.421 E4.95312
G1 X88.906 Y104.284 E4.99367
G1 X89.420 Y104.066 E5.02892
G1 X90.067 Y103.626 E5.07828
G1 X90.649 Y104.099 E5.12566
G1 X91.120 Y104.276 E5.15741
G1 X91.595 Y104.315 E5.18748
G1 X92.081 Y104.269 E5.21835
G1 X92.853 Y104.278 E5.26708
G1 X93.496 Y104.245 E5.30773
G1 X94.194 Y104.133 E5.35240
G1 X94.926 Y103.886 E5.40115
G1 X95.117 Y104.107 E5.41965
G1 X95.572 Y104.447 E5.45550
G1 X95.990 Y104.633 E5.48438
G1 X96.399 Y104.733 E5.51095
G1 X96.819 Y104.762 E5.53754
G1 X97.239 Y104.716 E5.56425
G1 X97.678 Y104.587 E5.59314
G1 X98.235 Y104.276 E5.63342
G1 X98.499 Y104.421 E5.65245
G1 X99.333 Y104.503 E5.70533
G1 X100.046 Y104.175 E5.75492
G1 X100.046 Y105.940 E5.86636
G1 E3.86636 F2400.00000
G92 E0
G1 X80.904 Y101.450 F7800.000
G1 E2.00000 F2400.00000
G1 F1800
G1 X79.992 Y100.500 E2.08315
G1 X78.710 Y99.920 E2.17199
G1 X79.712 Y99.613 E2.23812
G1 X80.088 Y99.326 E2.26799
G1 X80.892 Y99.469 E2.31957
G1 X80.903 Y101.375 E2.43992
G1 E0.43992 F2400.00000
G92 E0
G1 X78.463 Y100.180 F7800.000
G1 E2.00000 F2400.00000
G1 F1800
G1 X78.217 Y100.222 E2.01577
G1 X77.481 Y100.555 E2.06680
G1 X77.456 Y99.930 E2.10632
G1 X77.490 Y99.306 E2.14578
G1 X78.037 Y99.615 E2.18544
G1 X78.493 Y99.759 E2.21567
G1 X78.468 Y100.105 E2.23757
G1 E0.23757 F2400.00000
G92 E0
G1 X84.622 Y99.390 F7800.000
G1 E2.00000 F2400.00000
G1 F1800
G1 X85.053 Y99.345 E2.02733
G1 X85.484 Y99.210 E2.05586
G1 X85.500 Y100.080 E2.11082
G1 X85.678 Y100.587 E2.14471
G1 X85.345 Y100.795 E2.16948
G1 X85.004 Y101.283 E2.20706
G1 X84.630 Y101.166 E2.23181
G1 X84.623 Y99.465 E2.33922
G1 E0.33922 F2400.00000
G92 E0
G1 X105.492 Y105.296 F7800.000
G1 E2.00000 F2400.00000
G1 F1800
G1 X105.575 Y105.128 E2.01182
G1 X106.119 Y103.741 E2.10593
G1 X106.690 Y104.247 E2.15411
G1 X107.566 Y104.590 E2.21354
G1 X106.597 Y105.149 E2.28415
G1 X105.766 Y105.567 E2.34290
G1 X105.546 Y105.349 E2.36249
G1 E0.36249 F2400.00000
G92 E0
G1 X102.159 Y102.949 F7800.000
G1 E2.00000 F2400.00000
G1 F1800
G1 X102.199 Y102.627 E2.02050
G1 X102.150 Y102.297 E2.04155
G1 X101.991 Y101.944 E2.06597
G1 X101.264 Y100.732 E2.15523
G1 X101.350 Y100.526 E2.16936
G1 X102.162 Y99.152 E2.27014
G1 X102.657 Y100.380 E2.35375
G1 X103.253 Y101.989 E2.46209
G1 X103.556 Y102.717 E2.51188
G1 X103.325 Y103.231 E2.54751
G1 X103.111 Y103.790 E2.58530
G1 X102.991 Y103.990 E2.59999
G1 X102.879 Y104.073 E2.60883
G1 X102.767 Y104.123 E2.61656
G1 X102.268 Y104.267 E2.64938
G1 X102.034 Y104.419 E2.66700
G1 X101.869 Y104.623 E2.68353
G1 X101.776 Y104.988 E2.70735
G1 X101.840 Y105.394 E2.73332
G1 X102.035 Y105.764 E2.75971
G1 X102.348 Y106.023 E2.78541
G1 X102.742 Y106.125 E2.81110
G1 X103.159 Y106.092 E2.83750
G1 X103.633 Y105.950 E2.86872
G1 X103.949 Y105.794 E2.89100
G1 X104.213 Y105.594 E2.91191
G1 X104.431 Y105.348 E2.93265
G1 X104.622 Y105.043 E2.95537
G1 X104.757 Y104.768 E2.97476
G1 X105.415 Y103.091 E3.08851
G1 X106.498 Y100.011 E3.29466
G1 X106.729 Y99.507 E3.32970
G1 X107.308 Y99.866 E3.37271
G1 X107.616 Y99.943 E3.39274
G1 X108.201 Y99.979 E3.42980
G1 X106.924 Y101.759 E3.56814
G1 X106.780 Y102.057 E3.58906
G1 X106.704 Y102.357 E3.60858
G1 X106.701 Y102.681 E3.62906
G1 X106.804 Y103.054 E3.65346
G1 X106.944 Y103.280 E3.67025
G1 X107.163 Y103.474 E3.68875
G1 X107.424 Y103.576 E3.70646
G1 X107.642 Y103.604 E3.72029
G1 X108.237 Y103.574 E3.75794
G1 X110.262 Y103.580 E3.88577
G1 X109.259 Y104.438 E3.96908
G1 X108.781 Y104.810 E4.00735
G1 X108.181 Y105.234 E4.05375
G1 X107.665 Y105.564 E4.09239
G1 X107.021 Y105.935 E4.13933
G1 X106.198 Y106.350 E4.19756
G1 X105.299 Y106.731 E4.25919
G1 X104.396 Y107.044 E4.31956
G1 X103.472 Y107.299 E4.38006
G1 X102.526 Y107.495 E4.44108
G1 X101.723 Y107.611 E4.49230
G1 X100.752 Y107.690 E4.55382
G1 X99.816 Y107.705 E4.61292
G1 X99.133 Y107.678 E4.65610
G1 X75.759 Y106.232 E6.13491
G1 X75.442 Y106.180 E6.15518
G1 X75.294 Y106.130 E6.16505
G1 X75.005 Y105.957 E6.18634
G1 X74.892 Y105.849 E6.19618
G1 X74.733 Y105.632 E6.21315
G1 X74.604 Y105.311 E6.23499
G1 X74.569 Y105.125 E6.24699
G1 X74.557 Y102.073 E6.43970
G1 X74.955 Y101.967 E6.46569
G1 X75.117 Y102.250 E6.48629
G1 X75.354 Y102.569 E6.51134
G1 X75.548 Y102.774 E6.52921
G1 X75.861 Y103.034 E6.55492
G1 X76.313 Y103.294 E6.58780
G1 X76.581 Y103.400 E6.60603
G1 X76.885 Y103.484 E6.62593
G1 X77.177 Y103.533 E6.64460
G1 X77.632 Y103.557 E6.67336
G1 X78.060 Y103.529 E6.70047
G1 X78.441 Y103.455 E6.72498
G1 X78.787 Y103.331 E6.74821
G1 X79.013 Y103.213 E6.76431
G1 X79.293 Y103.013 E6.78601
G1 X79.542 Y102.754 E6.80867
G1 X79.776 Y102.370 E6.83711
G1 X79.890 Y101.973 E6.86316
G1 X79.757 Y101.544 E6.89155
G1 X79.467 Y101.242 E6.91796
G1 X79.089 Y101.071 E6.94416
G1 X78.769 Y101.034 E6.96455
G1 X78.479 Y101.083 E6.98307
G1 X78.285 Y101.171 E6.99657
G1 X78.125 Y101.290 E7.00915
G1 X77.943 Y101.505 E7.02695
G1 X77.696 Y101.556 E7.04287
G1 X77.459 Y101.557 E7.05781
G1 X77.285 Y101.521 E7.06904
G1 X77.070 Y101.427 E7.08382
G1 X76.914 Y101.305 E7.09634
G1 X76.784 Y101.133 E7.10995
G1 X76.696 Y100.942 E7.12321
G1 X76.625 Y100.685 E7.14007
G1 X76.580 Y100.371 E7.16008
G1 X76.562 Y99.924 E7.18838
G1 X76.584 Y99.515 E7.21422
G1 X76.632 Y99.213 E7.23352
G1 X76.702 Y98.976 E7.24910
G1 X76.784 Y98.800 E7.26140
G1 X76.917 Y98.620 E7.27551
G1 X77.026 Y98.528 E7.28452
G1 X77.169 Y98.448 E7.29486
G1 X77.324 Y98.396 E7.30523
G1 X77.616 Y98.377 E7.32371
G1 X77.707 Y98.403 E7.32969
G1 X78.395 Y98.792 E7.37957
G1 X78.688 Y98.885 E7.39899
G1 X78.989 Y98.901 E7.41804
G1 X79.297 Y98.807 E7.43835
G1 X79.544 Y98.618 E7.45799
G1 X79.693 Y98.423 E7.47346
G1 X79.922 Y97.902 E7.50942
G1 X80.180 Y98.288 E7.53874
G1 X80.493 Y98.492 E7.56233
G1 X80.808 Y98.548 E7.58252
G1 X81.826 Y98.442 E7.64712
G1 X81.782 Y99.137 E7.69111
G1 X81.799 Y101.920 E7.86687
G1 X81.758 Y102.600 E7.90986
G1 X81.822 Y102.875 E7.92771
G1 X81.953 Y103.099 E7.94409
G1 X82.261 Y103.323 E7.96814
G1 X82.681 Y103.417 E7.99535
G1 X83.078 Y103.364 E8.02060
G1 X83.357 Y103.212 E8.04068
G1 X83.568 Y102.974 E8.06076
G1 X83.687 Y102.698 E8.07977
G1 X83.743 Y102.389 E8.09954
G1 X83.726 Y98.493 E8.34557
G1 X84.498 Y98.505 E8.39433
G1 X84.871 Y98.466 E8.41804
G1 X85.160 Y98.376 E8.43712
G1 X85.692 Y97.970 E8.47939
G1 X86.014 Y98.418 E8.51424
G1 X86.284 Y98.631 E8.53598
G1 X86.821 Y98.805 E8.57162
G1 X86.565 Y99.102 E8.59638
G1 X86.459 Y99.316 E8.61148
G1 X86.384 Y99.613 E8.63079
G1 X86.390 Y99.920 E8.65021
G1 X86.499 Y100.231 E8.67096
G1 X86.772 Y100.490 E8.69474
G1 X87.052 Y100.596 E8.71365
G1 X87.553 Y100.689 E8.74585
G1 X87.789 Y100.791 E8.76210
G1 X87.911 Y100.888 E8.77193
G1 X88.009 Y101.001 E8.78136
G1 X88.096 Y101.161 E8.79288
G1 X88.122 Y101.285 E8.80085
G1 X88.110 Y101.412 E8.80892
G1 X88.082 Y101.484 E8.81382
G1 X88.036 Y101.551 E8.81890
G1 X87.849 Y101.716 E8.83465
G1 X87.292 Y101.316 E8.87792
G1 X87.021 Y101.217 E8.89615
G1 X86.698 Y101.180 E8.91669
G1 X86.299 Y101.251 E8.94225
G1 X85.973 Y101.455 E8.96658
G1 X85.777 Y101.736 E8.98820
G1 X85.695 Y102.130 E9.01364
G1 X85.737 Y102.471 E9.03533
G1 X85.891 Y102.823 E9.05954
G1 X86.108 Y103.074 E9.08053
G1 X86.372 Y103.261 E9.10092
G1 X86.676 Y103.397 E9.12197
G1 X87.019 Y103.493 E9.14448
G1 X87.421 Y103.548 E9.17005
G1 X87.729 Y103.557 E9.18956
G1 X88.158 Y103.534 E9.21668
G1 X88.634 Y103.429 E9.24744
G1 X88.991 Y103.278 E9.27192
G1 X89.398 Y103.001 E9.30301
G1 X89.739 Y102.632 E9.33471
G1 X90.001 Y102.184 E9.36754
G1 X90.172 Y101.674 E9.40150
G1 X90.627 Y101.754 E9.43069
G1 X90.612 Y102.276 E9.46363
G1 X90.640 Y102.594 E9.48379
G1 X90.726 Y102.884 E9.50287
G1 X90.880 Y103.136 E9.52154
G1 X91.099 Y103.314 E9.53942
G1 X91.318 Y103.397 E9.55415
G1 X91.589 Y103.419 E9.57136
G1 X92.044 Y103.376 E9.60021
G1 X92.835 Y103.385 E9.65015
G1 X93.402 Y103.356 E9.68600
G1 X93.979 Y103.263 E9.72290
G1 X94.454 Y103.103 E9.75454
G1 X94.796 Y102.910 E9.77932
G1 X95.256 Y102.563 E9.81574
G1 X95.408 Y103.003 E9.84512
G1 X95.545 Y103.237 E9.86227
G1 X95.729 Y103.450 E9.88005
G1 X96.026 Y103.672 E9.90345
G1 X96.280 Y103.785 E9.92099
G1 X96.536 Y103.848 E9.93766
G1 X96.801 Y103.866 E9.95439
G1 X97.064 Y103.837 E9.97110
G1 X97.330 Y103.759 E9.98864
G1 X97.659 Y103.576 E10.01238
G1 X97.865 Y103.391 E10.02990
G1 X98.143 Y103.034 E10.05844
G1 X98.418 Y103.358 E10.08525
G1 X98.769 Y103.551 E10.11052
G1 X99.179 Y103.591 E10.13658
G1 X99.542 Y103.424 E10.16176
G1 X99.761 Y103.207 E10.18124
G1 X100.106 Y102.719 E10.21900
G1 X100.544 Y103.324 E10.26621
G1 X100.774 Y103.497 E10.28437
G1 X100.939 Y103.559 E10.29551
G1 X100.939 Y104.127 E10.33139
G1 X102.009 Y103.249 E10.41880
G1 X102.126 Y103.016 E10.43525
G1 X102.479 Y102.893 F7800.000
G1 E8.43525 F2400.00000
G92 E0
G1 X74.706 Y97.903 F7800.000
G1 E2.00000 F2400.00000
G1 F1800
G1 X74.579 Y99.281 E2.09683
G1 F1800
G1 X74.560 Y99.963 E2.14188
G1 X74.581 Y100.691 E2.18998
G1 X74.602 Y100.980 E2.20914
G1 X74.672 Y101.026 E2.21467
G1 F1800
G1 X75.234 Y101.375 E2.25479
G1 E0.25479 F2400.00000
G92 E0
G1 X85.758 Y98.287 F7800.000
G1 E2.00000 F2400.00000
G1 F1800
G1 X88.259 Y98.099 E2.09694
G1 X87.954 Y98.311 F7800.000
G1 F1800
G1 X87.996 Y98.427 E2.10238
G1 F1800
G1 X87.984 Y98.562 E2.10769
G1 F1800
G1 X87.970 Y98.617 E2.10965
G1 X87.894 Y98.727 E2.11426
G1 F1800
G1 X87.522 Y98.998 E2.12775
G1 F1800
G1 X87.254 Y99.178 E2.13532
G1 X87.954 Y98.311 F7800.000
G1 F1800
G1 X87.864 Y98.212 E2.14172
G1 X87.778 Y98.176 E2.14623
G1 X87.043 Y98.050 E2.18212
G1 E0.18212 F2400.00000
G92 E0
G1 X88.837 Y99.500 F7800.000
G1 E2.00000 F2400.00000
G1 F1800
G1 X88.818 Y99.518 E2.00035
G1 X88.846 Y99.564 E2.00106
G1 F1800
G1 X88.860 Y99.586 E2.00128
G1 X89.080 Y99.607 E2.00313
G1 F1800
G1 X89.521 Y99.650 E2.00436
G1 X89.039 Y99.317 F7800.000
G1 F1800
G1 X88.961 Y99.392 E2.00487
G1 F1800
